X:45
T: Farewell To Connaught
M: 4/4
L: 1/8
R: reel
K: Dmix
|: D2 ED (3EFG AB | cBcd c2 AG | Add^c d2 cd | ed^cd edcd |
| D2 ED (3EFG AB | cBcd c2 AG | ABAG EGAB | cAGE ED D2 :|
|: eggf g2 ed | cded cAGc | eaag a2ag | egag ed^cd |
eggf g2 ed | cded cAGc | ABAG EGAB | cAGE ED D2 :|
